Newaita-dark/apps/64/terminator.svg

<svg height="64" viewBox="0 0 64 64" width="64" xmlns="http://www.w3.org/2000/svg" xmlns:xlink="http://www.w3.org/1999/xlink"><linearGradient id="a" gradientUnits="userSpaceOnUse" x1="30.429985" x2="30.429985" y1="56.067868" y2="58.71395600006"><stop offset="0" stop-opacity=".27451"/><stop offset="1" stop-opacity="0"/></linearGradient><linearGradient id="b"><stop offset="0" stop-opacity=".313726"/><stop offset=".222222" stop-opacity=".27451"/><stop offset="1" stop-opacity="0"/></linearGradient><radialGradient id="c" cx="450.908936" cy="189.579361" gradientTransform="matrix(.00000035 -.156265 -.281277 -.0000002 106.907377 127.190665)" gradientUnits="userSpaceOnUse" r="21.166656" xlink:href="#b"/><radialGradient id="d" cx="450.908936" cy="189.579361" gradientTransform="matrix(-.00000035 .156265 .281277 .0000002 -43.401308 -15.054958)" gradientUnits="userSpaceOnUse" r="21.166656" xlink:href="#b"/><radialGradient id="e" cx="450.908936" cy="189.579361" gradientTransform="matrix(-.00000035 -.156265 .281277 -.0000002 -43.401308 127.190665)" gradientUnits="userSpaceOnUse" r="21.166656" xlink:href="#b"/><radialGradient id="f" cx="450.908936" cy="189.579361" gradientTransform="matrix(.00000035 .156265 -.281277 .0000002 106.907373 -15.054959)" gradientUnits="userSpaceOnUse" r="21.166656" xlink:href="#b"/><linearGradient id="g" gradientTransform="matrix(.144147 0 0 .381253 -9.818413 62.352984)" gradientUnits="userSpaceOnUse" x1="307.62677" x2="305.954529" y1="-22.391003" y2="-141.414581"><stop offset="0" stop-color="#424242"/><stop offset="1" stop-color="#616161"/></linearGradient><linearGradient id="h"><stop offset="0" stop-color="#ef5350"/><stop offset="1" stop-color="#e57373"/></linearGradient><linearGradient id="i" gradientTransform="matrix(-.144147 0 0 .381253 73.324476 62.352984)" gradientUnits="userSpaceOnUse" x1="306.752686" x2="305.954529" xlink:href="#h" y1="-16.485477" y2="-141.414581"/><linearGradient id="j"><stop offset="0" stop-color="#f44336"/><stop offset="1" stop-color="#ef5350"/></linearGradient><linearGradient id="k" gradientTransform="matrix(.144147 0 0 .381253 -9.818411 62.352981)" gradientUnits="userSpaceOnUse" x1="306.752686" x2="305.954529" xlink:href="#j" y1="-16.485477" y2="-141.414581"/><linearGradient id="l" gradientTransform="matrix(.144147 0 0 -.381253 -9.818412 2.153143)" gradientUnits="userSpaceOnUse" x1="251.682175" x2="251.682175" xlink:href="#h" y1="-141.414673" y2="-16.485561"/><linearGradient id="m" gradientTransform="matrix(-.144147 0 0 -.381253 73.324476 2.153144)" gradientUnits="userSpaceOnUse" x1="260.860596" x2="260.860596" xlink:href="#j" y1="-141.414673" y2="-16.485558"/><path d="m9.261719 56.214844h44.984375v2.5h-44.984375zm0 0" fill="url(#a)"/><path d="m54.246094 56.066406h5.289062v-2.644531h-5.289062zm0 0" fill="url(#c)"/><path d="m9.261719 56.066406h-5.292969v2.648438h5.292969zm0 0" fill="url(#d)"/><path d="m9.261719 56.066406h-5.292969v-2.644531h5.292969zm0 0" fill="url(#e)"/><path d="m54.246094 56.066406h5.289062v2.648438h-5.289062zm0 0" fill="url(#f)"/><path d="m6.613281 8.4375h50.277344c1.460937 0 2.644531 1.121094 2.644531 2.5v42.632812c0 1.378907-1.183594 2.496094-2.644531 2.496094h-50.277344c-1.460937 0-2.644531-1.117187-2.644531-2.496094v-42.632812c0-1.378906 1.183594-2.5 2.644531-2.5zm0 0" fill="url(#g)"/><path d="m56.890625 8.4375c1.464844 0 2.644531 1.117188 2.644531 2.5v21.316406h-27.78125v-23.816406zm0 0" fill="url(#i)"/><path d="m6.613281 8.4375c-1.464843 0-2.644531 1.117188-2.644531 2.5v21.316406h27.785156v-23.816406zm0 0" fill="url(#k)"/><path d="m6.613281 56.066406c-1.464843 0-2.644531-1.113281-2.644531-2.496094v-21.316406h27.785156v23.8125zm0 0" fill="url(#l)"/><path d="m17.3125 15.714844c-.519531-.519532-1.351562-.519532-1.871094 0-.519531.519531-.519531 1.351562 0 1.871094l3.742188 3.742187-3.742188 3.742187c-.519531.519532-.519531 1.351563 0 1.871094.519532.519532 1.351563.519532 1.871094 0l4.679688-4.675781c.03125-.035156.0625-.066406.089843-.101563.425781-.523437.394531-1.285156-.089843-1.769531zm0 0" fill="#ececec" fill-opacity=".588235"/><path d="m6.613281 8.4375c-1.464843 0-2.644531 1.117188-2.644531 2.5v.660156c0-1.382812 1.179688-2.496094 2.644531-2.496094h50.277344c1.464844 0 2.644531 1.113282 2.644531 2.496094v-.660156c0-1.382812-1.179687-2.5-2.644531-2.5zm0 0" fill="#fff" fill-opacity=".392157"/><path d="m56.890625 56.066406c1.464844 0 2.644531-1.113281 2.644531-2.496094v-21.316406h-27.78125v23.8125zm0 0" fill="url(#m)"/><path d="m6.613281 56.085938c-1.464843 0-2.644531-1.113282-2.644531-2.5v-.660157c0 1.382813 1.179688 2.5 2.644531 2.5h50.277344c1.464844 0 2.644531-1.117187 2.644531-2.5v.660157c0 1.386718-1.179687 2.5-2.644531 2.5zm0 0" fill-opacity=".235294"/><path d="m7.9375 10.929688c-.816406 0-1.480469.660156-1.480469 1.476562v37.046875c0 .816406.664063 1.480469 1.480469 1.480469h47.628906c.816406 0 1.480469-.664063 1.480469-1.480469v-37.046875c0-.816406-.664063-1.476562-1.480469-1.476562zm0 .3125h47.628906c.652344 0 1.167969.515624 1.167969 1.164062v37.046875c0 .648437-.515625 1.167969-1.167969 1.167969h-47.628906c-.648438 0-1.167969-.519532-1.167969-1.167969v-37.046875c0-.648438.519531-1.164062 1.167969-1.164062zm0 0" fill="#212121"/><path d="m7.9375 11.257812c-.632812 0-1.148438.515626-1.148438 1.148438v37.046875c0 .632813.515626 1.148437 1.148438 1.148437h47.628906c.636719 0 1.148438-.515624 1.148438-1.148437v-37.046875c0-.632812-.511719-1.148438-1.148438-1.148438zm0 .3125h47.628906c.46875 0 .835938.371094.835938.835938v37.046875c0 .464844-.367188.835937-.835938.835937h-47.628906c-.464844 0-.835938-.371093-.835938-.835937v-37.046875c0-.464844.371094-.835938.835938-.835938zm0 0" fill="#dedede" fill-opacity=".705882"/><path d="m52.901198-147.506445h402.180344c11.686384 0 21.15423 8.967893 21.15423 19.99809v341.029933c0 11.030197-9.467846 19.966843-21.15423 19.966843h-402.180344c-11.686384 0-21.15423-8.936646-21.15423-19.966843v-341.029933c0-11.030197 9.467846-19.99809 21.15423-19.99809zm0 0" fill="none" stroke="#212121" stroke-linecap="round" stroke-width="3" transform="matrix(.125012 0 0 .125012 0 26.877566)"/><path d="m44.433594 37.222656c-.515625-.515625-1.351563-.515625-1.871094 0-.515625.519532-.515625 1.355469 0 1.871094l3.742188 3.742188-3.742188 3.742187c-.515625.519531-.515625 1.355469 0 1.871094.519531.519531 1.355469.519531 1.871094 0l4.679687-4.675781c.03125-.03125.0625-.066407.089844-.101563.425781-.519531.394531-1.285156-.089844-1.769531zm0 0" fill="#ececec" fill-opacity=".588235"/></svg>

<?xml version="1.0" encoding="UTF-8"?>
<svg xmlns="http://www.w3.org/2000/svg" xmlns:xlink="http://www.w3.org/1999/xlink" width="64px" height="64px" viewBox="0 0 64 64" version="1.1">
<defs>
<linearGradient id="linear0" gradientUnits="userSpaceOnUse" x1="254" y1="233.5" x2="254" y2="254.666672" gradientTransform="matrix(0.125012,0,0,0.125012,-1.323063,26.877566)">
<stop offset="0" style="stop-color:rgb(0%,0%,0%);stop-opacity:0.27451;"/>
<stop offset="1" style="stop-color:rgb(0%,0%,0%);stop-opacity:0;"/>
</linearGradient>
<radialGradient id="radial0" gradientUnits="userSpaceOnUse" cx="450.908936" cy="189.579361" fx="450.908936" fy="189.579361" r="21.166656" gradientTransform="matrix(0.000000348341,-0.156265,-0.281277,-0.000000203077,106.907377,127.190665)">
<stop offset="0" style="stop-color:rgb(0%,0%,0%);stop-opacity:0.313726;"/>
<stop offset="0.222222" style="stop-color:rgb(0%,0%,0%);stop-opacity:0.27451;"/>
<stop offset="1" style="stop-color:rgb(0%,0%,0%);stop-opacity:0;"/>
</radialGradient>
<radialGradient id="radial1" gradientUnits="userSpaceOnUse" cx="450.908936" cy="189.579361" fx="450.908936" fy="189.579361" r="21.166656" gradientTransform="matrix(-0.000000348341,0.156265,0.281277,0.000000203077,-43.401308,-15.054958)">
<stop offset="0" style="stop-color:rgb(0%,0%,0%);stop-opacity:0.313726;"/>
<stop offset="0.222222" style="stop-color:rgb(0%,0%,0%);stop-opacity:0.27451;"/>
<stop offset="1" style="stop-color:rgb(0%,0%,0%);stop-opacity:0;"/>
</radialGradient>
<radialGradient id="radial2" gradientUnits="userSpaceOnUse" cx="450.908936" cy="189.579361" fx="450.908936" fy="189.579361" r="21.166656" gradientTransform="matrix(-0.000000348341,-0.156265,0.281277,-0.000000203077,-43.401308,127.190665)">
<stop offset="0" style="stop-color:rgb(0%,0%,0%);stop-opacity:0.313726;"/>
<stop offset="0.222222" style="stop-color:rgb(0%,0%,0%);stop-opacity:0.27451;"/>
<stop offset="1" style="stop-color:rgb(0%,0%,0%);stop-opacity:0;"/>
</radialGradient>
<radialGradient id="radial3" gradientUnits="userSpaceOnUse" cx="450.908936" cy="189.579361" fx="450.908936" fy="189.579361" r="21.166656" gradientTransform="matrix(0.000000348341,0.156265,-0.281277,0.000000203077,106.907373,-15.054959)">
<stop offset="0" style="stop-color:rgb(0%,0%,0%);stop-opacity:0.313726;"/>
<stop offset="0.222222" style="stop-color:rgb(0%,0%,0%);stop-opacity:0.27451;"/>
<stop offset="1" style="stop-color:rgb(0%,0%,0%);stop-opacity:0;"/>
</radialGradient>
<linearGradient id="linear1" gradientUnits="userSpaceOnUse" x1="307.62677" y1="-22.391003" x2="305.954529" y2="-141.414581" gradientTransform="matrix(0.144147,0,0,0.381253,-9.818413,62.352984)">
<stop offset="0" style="stop-color:rgb(25.882354%,25.882354%,25.882354%);stop-opacity:1;"/>
<stop offset="1" style="stop-color:rgb(38.039216%,38.039216%,38.039216%);stop-opacity:1;"/>
</linearGradient>
<linearGradient id="linear2" gradientUnits="userSpaceOnUse" x1="306.752686" y1="-16.485477" x2="305.954529" y2="-141.414581" gradientTransform="matrix(-0.144147,0,0,0.381253,73.324476,62.352984)">
<stop offset="0" style="stop-color:rgb(93.725491%,32.549021%,31.37255%);stop-opacity:1;"/>
<stop offset="1" style="stop-color:rgb(89.803922%,45.09804%,45.09804%);stop-opacity:1;"/>
</linearGradient>
<linearGradient id="linear3" gradientUnits="userSpaceOnUse" x1="306.752686" y1="-16.485477" x2="305.954529" y2="-141.414581" gradientTransform="matrix(0.144147,0,0,0.381253,-9.818411,62.352981)">
<stop offset="0" style="stop-color:rgb(95.686275%,26.274511%,21.176471%);stop-opacity:1;"/>
<stop offset="1" style="stop-color:rgb(93.725491%,32.549021%,31.37255%);stop-opacity:1;"/>
</linearGradient>
<linearGradient id="linear4" gradientUnits="userSpaceOnUse" x1="251.682175" y1="-141.414673" x2="251.682175" y2="-16.485561" gradientTransform="matrix(0.144147,0,0,-0.381253,-9.818412,2.153143)">
<stop offset="0" style="stop-color:rgb(93.725491%,32.549021%,31.37255%);stop-opacity:1;"/>
<stop offset="1" style="stop-color:rgb(89.803922%,45.09804%,45.09804%);stop-opacity:1;"/>
</linearGradient>
<linearGradient id="linear5" gradientUnits="userSpaceOnUse" x1="260.860596" y1="-141.414673" x2="260.860596" y2="-16.485558" gradientTransform="matrix(-0.144147,0,0,-0.381253,73.324476,2.153144)">
<stop offset="0" style="stop-color:rgb(95.686275%,26.274511%,21.176471%);stop-opacity:1;"/>
<stop offset="1" style="stop-color:rgb(93.725491%,32.549021%,31.37255%);stop-opacity:1;"/>
</linearGradient>
</defs>
<g id="surface1">
<path style=" stroke:none;fill-rule:nonzero;fill:url(#linear0);" d="M 9.261719 56.214844 L 54.246094 56.214844 L 54.246094 58.714844 L 9.261719 58.714844 Z M 9.261719 56.214844 "/>
<path style=" stroke:none;fill-rule:nonzero;fill:url(#radial0);" d="M 54.246094 56.066406 L 59.535156 56.066406 L 59.535156 53.421875 L 54.246094 53.421875 Z M 54.246094 56.066406 "/>
<path style=" stroke:none;fill-rule:nonzero;fill:url(#radial1);" d="M 9.261719 56.066406 L 3.96875 56.066406 L 3.96875 58.714844 L 9.261719 58.714844 Z M 9.261719 56.066406 "/>
<path style=" stroke:none;fill-rule:nonzero;fill:url(#radial2);" d="M 9.261719 56.066406 L 3.96875 56.066406 L 3.96875 53.421875 L 9.261719 53.421875 Z M 9.261719 56.066406 "/>
<path style=" stroke:none;fill-rule:nonzero;fill:url(#radial3);" d="M 54.246094 56.066406 L 59.535156 56.066406 L 59.535156 58.714844 L 54.246094 58.714844 Z M 54.246094 56.066406 "/>
<path style=" stroke:none;fill-rule:nonzero;fill:url(#linear1);" d="M 6.613281 8.4375 L 56.890625 8.4375 C 58.351562 8.4375 59.535156 9.558594 59.535156 10.9375 L 59.535156 53.570312 C 59.535156 54.949219 58.351562 56.066406 56.890625 56.066406 L 6.613281 56.066406 C 5.152344 56.066406 3.96875 54.949219 3.96875 53.570312 L 3.96875 10.9375 C 3.96875 9.558594 5.152344 8.4375 6.613281 8.4375 Z M 6.613281 8.4375 "/>
<path style=" stroke:none;fill-rule:nonzero;fill:url(#linear2);" d="M 56.890625 8.4375 C 58.355469 8.4375 59.535156 9.554688 59.535156 10.9375 L 59.535156 32.253906 L 31.753906 32.253906 L 31.753906 8.4375 Z M 56.890625 8.4375 "/>
<path style=" stroke:none;fill-rule:nonzero;fill:url(#linear3);" d="M 6.613281 8.4375 C 5.148438 8.4375 3.96875 9.554688 3.96875 10.9375 L 3.96875 32.253906 L 31.753906 32.253906 L 31.753906 8.4375 Z M 6.613281 8.4375 "/>
<path style=" stroke:none;fill-rule:nonzero;fill:url(#linear4);" d="M 6.613281 56.066406 C 5.148438 56.066406 3.96875 54.953125 3.96875 53.570312 L 3.96875 32.253906 L 31.753906 32.253906 L 31.753906 56.066406 Z M 6.613281 56.066406 "/>
<path style=" stroke:none;fill-rule:nonzero;fill:rgb(92.54902%,92.54902%,92.54902%);fill-opacity:0.588235;" d="M 17.3125 15.714844 C 16.792969 15.195312 15.960938 15.195312 15.441406 15.714844 C 14.921875 16.234375 14.921875 17.066406 15.441406 17.585938 L 19.183594 21.328125 L 15.441406 25.070312 C 14.921875 25.589844 14.921875 26.421875 15.441406 26.941406 C 15.960938 27.460938 16.792969 27.460938 17.3125 26.941406 L 21.992188 22.265625 C 22.023438 22.230469 22.054688 22.199219 22.082031 22.164062 C 22.507812 21.640625 22.476562 20.878906 21.992188 20.394531 Z M 17.3125 15.714844 "/>
<path style=" stroke:none;fill-rule:nonzero;fill:rgb(100%,100%,100%);fill-opacity:0.392157;" d="M 6.613281 8.4375 C 5.148438 8.4375 3.96875 9.554688 3.96875 10.9375 L 3.96875 11.597656 C 3.96875 10.214844 5.148438 9.101562 6.613281 9.101562 L 56.890625 9.101562 C 58.355469 9.101562 59.535156 10.214844 59.535156 11.597656 L 59.535156 10.9375 C 59.535156 9.554688 58.355469 8.4375 56.890625 8.4375 Z M 6.613281 8.4375 "/>
<path style=" stroke:none;fill-rule:nonzero;fill:url(#linear5);" d="M 56.890625 56.066406 C 58.355469 56.066406 59.535156 54.953125 59.535156 53.570312 L 59.535156 32.253906 L 31.753906 32.253906 L 31.753906 56.066406 Z M 56.890625 56.066406 "/>
<path style=" stroke:none;fill-rule:nonzero;fill:rgb(0%,0%,0%);fill-opacity:0.235294;" d="M 6.613281 56.085938 C 5.148438 56.085938 3.96875 54.972656 3.96875 53.585938 L 3.96875 52.925781 C 3.96875 54.308594 5.148438 55.425781 6.613281 55.425781 L 56.890625 55.425781 C 58.355469 55.425781 59.535156 54.308594 59.535156 52.925781 L 59.535156 53.585938 C 59.535156 54.972656 58.355469 56.085938 56.890625 56.085938 Z M 6.613281 56.085938 "/>
<path style=" stroke:none;fill-rule:nonzero;fill:rgb(12.941177%,12.941177%,12.941177%);fill-opacity:1;" d="M 7.9375 10.929688 C 7.121094 10.929688 6.457031 11.589844 6.457031 12.40625 L 6.457031 49.453125 C 6.457031 50.269531 7.121094 50.933594 7.9375 50.933594 L 55.566406 50.933594 C 56.382812 50.933594 57.046875 50.269531 57.046875 49.453125 L 57.046875 12.40625 C 57.046875 11.589844 56.382812 10.929688 55.566406 10.929688 Z M 7.9375 11.242188 L 55.566406 11.242188 C 56.21875 11.242188 56.734375 11.757812 56.734375 12.40625 L 56.734375 49.453125 C 56.734375 50.101562 56.21875 50.621094 55.566406 50.621094 L 7.9375 50.621094 C 7.289062 50.621094 6.769531 50.101562 6.769531 49.453125 L 6.769531 12.40625 C 6.769531 11.757812 7.289062 11.242188 7.9375 11.242188 Z M 7.9375 11.242188 "/>
<path style=" stroke:none;fill-rule:nonzero;fill:rgb(87.058824%,87.058824%,87.058824%);fill-opacity:0.705882;" d="M 7.9375 11.257812 C 7.304688 11.257812 6.789062 11.773438 6.789062 12.40625 L 6.789062 49.453125 C 6.789062 50.085938 7.304688 50.601562 7.9375 50.601562 L 55.566406 50.601562 C 56.203125 50.601562 56.714844 50.085938 56.714844 49.453125 L 56.714844 12.40625 C 56.714844 11.773438 56.203125 11.257812 55.566406 11.257812 Z M 7.9375 11.570312 L 55.566406 11.570312 C 56.035156 11.570312 56.402344 11.941406 56.402344 12.40625 L 56.402344 49.453125 C 56.402344 49.917969 56.035156 50.289062 55.566406 50.289062 L 7.9375 50.289062 C 7.472656 50.289062 7.101562 49.917969 7.101562 49.453125 L 7.101562 12.40625 C 7.101562 11.941406 7.472656 11.570312 7.9375 11.570312 Z M 7.9375 11.570312 "/>
<path style="fill:none;stroke-width:3;stroke-linecap:round;stroke-linejoin:miter;stroke:rgb(12.941177%,12.941177%,12.941177%);stroke-opacity:1;stroke-miterlimit:4;" d="M 52.901198 -147.506445 L 455.081542 -147.506445 C 466.767926 -147.506445 476.235772 -138.538552 476.235772 -127.508355 L 476.235772 213.521578 C 476.235772 224.551775 466.767926 233.488421 455.081542 233.488421 L 52.901198 233.488421 C 41.214814 233.488421 31.746968 224.551775 31.746968 213.521578 L 31.746968 -127.508355 C 31.746968 -138.538552 41.214814 -147.506445 52.901198 -147.506445 Z M 52.901198 -147.506445 " transform="matrix(0.125012,0,0,0.125012,0,26.877566)"/>
<path style=" stroke:none;fill-rule:nonzero;fill:rgb(92.54902%,92.54902%,92.54902%);fill-opacity:0.588235;" d="M 44.433594 37.222656 C 43.917969 36.707031 43.082031 36.707031 42.5625 37.222656 C 42.046875 37.742188 42.046875 38.578125 42.5625 39.09375 L 46.304688 42.835938 L 42.5625 46.578125 C 42.046875 47.097656 42.046875 47.933594 42.5625 48.449219 C 43.082031 48.96875 43.917969 48.96875 44.433594 48.449219 L 49.113281 43.773438 C 49.144531 43.742188 49.175781 43.707031 49.203125 43.671875 C 49.628906 43.152344 49.597656 42.386719 49.113281 41.902344 Z M 44.433594 37.222656 "/>
</g>
</svg>
